newicons/wa_revamp.svg

<?xml version="1.0" encoding="UTF-8" standalone="no"?>
<!-- Created with Inkscape (http://www.inkscape.org/) -->

<svg
   width="48"
   height="48"
   viewBox="0 0 48 48.000001"
   version="1.1"
   id="svg1"
   xml:space="preserve"
   inkscape:version="1.4.2 (ebf0e940d0, 2025-05-08)"
   sodipodi:docname="wa_revamp.svg"
   xmlns:inkscape="http://www.inkscape.org/namespaces/inkscape"
   xmlns:sodipodi="http://sodipodi.sourceforge.net/DTD/sodipodi-0.dtd"
   xmlns="http://www.w3.org/2000/svg"
   xmlns:svg="http://www.w3.org/2000/svg"><sodipodi:namedview
   id="namedview1"
   pagecolor="#505050"
   bordercolor="#eeeeee"
   borderopacity="1"
   inkscape:showpageshadow="0"
   inkscape:pageopacity="0"
   inkscape:pagecheckerboard="0"
   inkscape:deskcolor="#505050"
   inkscape:document-units="px"
   inkscape:zoom="14.481547"
   inkscape:cx="10.56517"
   inkscape:cy="21.372026"
   inkscape:window-width="1895"
   inkscape:window-height="1135"
   inkscape:window-x="12"
   inkscape:window-y="52"
   inkscape:window-maximized="0"
   inkscape:current-layer="svg1"
   showguides="false"><sodipodi:guide
     position="20.232645,35.087016"
     orientation="0,-1"
     id="guide11"
     inkscape:locked="false" /><sodipodi:guide
     position="24.375849,12.782768"
     orientation="0,-1"
     id="guide12"
     inkscape:locked="false" /><sodipodi:guide
     position="11.739077,22.312137"
     orientation="1,0"
     id="guide13"
     inkscape:locked="false" /><sodipodi:guide
     position="36.322086,20.240535"
     orientation="1,0"
     id="guide14"
     inkscape:locked="false" /></sodipodi:namedview><defs
   id="defs1"><style
     id="style1">
      .cls-1 {
        fill: none;
        stroke:#fff;
        stroke-linecap: round;
        stroke-linejoin: round;
      }
    </style><style
     id="style1-6">.a,.b{fill:none;stroke:#fff;stroke-linejoin:round;}.b{stroke-linecap:round;}</style><style
     id="style1-1">.q{fill:#fff;}.r,.s{fill:none;stroke:#fff;stroke-linecap:round;stroke-linejoin:round;}.s{stroke-width:1px;}</style><style
     id="style1-3">
      .cls-1 {
        fill: none;
        stroke:#fff;
        stroke-linecap: round;
        stroke-linejoin: round;
      }
    </style><style
     id="style1-62">
      .cls-1 {
        fill: none;
        stroke:#fff;
        stroke-linecap: round;
        stroke-linejoin: round;
      }
    </style><style
     id="style1-37">.cls-1{fill:none;stroke:#fff;stroke-linecap:round;stroke-linejoin:round;}</style><style
     id="style1-9">.q{fill:#fff;}.r,.s{fill:none;stroke:#fff;stroke-linecap:round;stroke-linejoin:round;}.s{stroke-width:1px;}</style><style
     id="style1-7">
      .cls-1 {
        fill: none;
        stroke: #fff;
        stroke-linecap: round;
        stroke-linejoin: round;
      }
    </style><style
     id="style1-75">
      .cls-1 {
        fill: none;
        stroke: #fff;
        stroke-linecap: round;
        stroke-linejoin: round;
      }
    </style></defs><path
   id="path24"
   style="display:inline;fill:none;stroke:#ffffff;stroke-width:1;stroke-linecap:round;stroke-linejoin:round;stroke-opacity:1;paint-order:markers stroke fill"
   d="m 37.757827,10.242176 a 4.5074506,5.5134903 45 0 0 -7.027128,0.653801 L 25.648506,5.8137835 c -0.424928,-0.424928 -1.111385,-0.4234836 -1.538162,0.00329 L 17.014047,12.91337 a 3.7442273,2.954924 45 0 1 0.543459,0.464416 3.7442273,2.954924 45 0 1 0.558282,4.738 m -7.873613,19.64204 a 4.5074506,5.5134903 45 0 1 0.653802,-7.027128 L 5.8137833,25.648505 c -0.424927,-0.424927 -0.4234826,-1.111384 0.00329,-1.538161 L 12.91337,17.014047 a 3.7442273,2.954924 45 0 0 0.464416,0.543459 3.7442273,2.954924 45 0 0 4.738,0.558282 m 19.642039,-7.873612 a 4.5074506,5.5134903 45 0 1 -0.6538,7.027128 l 5.082194,5.082195 c 0.424924,0.424927 0.42348,1.111385 -0.0033,1.538163 l -7.096294,7.096295 A 3.7442273,2.954924 45 0 0 34.622195,30.4425 3.7442273,2.954924 45 0 0 29.884192,29.884216 m -19.642036,7.873611 a 4.5074506,5.5134903 45 0 0 7.027129,-0.653799 l 5.082193,5.082193 c 0.42493,0.424927 1.111385,0.423482 1.538165,-0.0033 l 7.096295,-7.096295 a 3.7442273,2.954924 45 0 1 -0.54346,-0.464418 3.7442273,2.954924 45 0 1 -0.558282,-4.738" /><polyline
   class="r"
   points="277.33380544 80.65 282.33380544 78 277.33380544 75.35"
   id="polyline81-6"
   style="display:inline;fill:none;stroke:#ffffff;stroke-width:1;stroke-linecap:round;stroke-linejoin:round"
   transform="matrix(0.84318953,-0.84318953,0.84318953,0.84318953,-273.20811,189.67054)" /><polyline
   class="r"
   points="277.33380544 80.65 282.33380544 78 277.33380544 75.35"
   id="polyline81-6-8"
   style="display:inline;fill:none;stroke:#ffffff;stroke-width:1;stroke-linecap:round;stroke-linejoin:round"
   transform="matrix(-0.84318953,0.84318953,0.84318953,0.84318953,189.67054,-273.20811)" /><line
   class="r"
   x1="20.985596"
   y1="18.456032"
   x2="27.014404"
   y2="29.543974"
   id="line108-4"
   style="display:inline;fill:none;stroke:#ffffff;stroke-width:1;stroke-linecap:round;stroke-linejoin:round" />
  
</svg>

<?xml version="1.0" encoding="UTF-8"?><svg id="b" xmlns="http://www.w3.org/2000/svg" viewBox="0 0 48 48"><defs><style>.i{fill:none;stroke:#fff;stroke-linecap:round;stroke-linejoin:round;}</style></defs><path id="e" class="i" d="M37.7549,10.2451c-1.7414-1.7411-4.87-1.45-7.0256.6537l-5.0811-5.0811c-.4248-.4248-1.1111-.4234-1.5378.0033l-7.0948,7.0948c.1918.1401.3737.2956.5433.4643,1.4621,1.4616,1.7124,3.5821.559,4.7361l-.0009.0009M10.2451,37.7549c-1.7411-1.7414-1.45-4.87.6537-7.0256l-5.0811-5.0811c-.4248-.4248-.4234-1.1111.0033-1.5378l7.0948-7.0948c.1401.1918.2956.3737.4643.5433,1.4616,1.4621,3.5821,1.7124,4.7361.559l.0009-.0009M37.7549,10.2451c1.7411,1.7414,1.45,4.87-.6537,7.0256l5.0811,5.0811c.4248.4248.4234,1.1111-.0033,1.5378l-7.0948,7.0948c-.1401-.1918-.2956-.3737-.4643-.5433-1.4616-1.4621-3.5821-1.7124-4.7361-.559-.0003.0003-.0006.0006-.0009.0009M10.2451,37.7549c1.7414,1.7411,4.87,1.45,7.0256-.6537l5.0811,5.0811c.4248.4248,1.1111.4234,1.5378-.0033l7.0948-7.0948c-.1918-.1401-.3738-.2956-.5433-.4643-1.4621-1.4617-1.7124-3.5821-.559-4.7361.0003-.0003.0006-.0006.0009-.0009"/><polyline id="f" class="i" points="28.6391 23.8289 30.6202 17.3798 24.1712 19.3609"/><polyline id="g" class="i" points="23.8289 28.6391 17.3798 30.6201 19.3609 24.1711"/><line id="h" class="i" x1="20.9862" y1="18.4572" x2="27.0138" y2="29.5428"/></svg>
